dist/img/iventory.svg

<svg width="41" height="41" viewBox="0 0 41 41" fill="none" xmlns="http://www.w3.org/2000/svg">
<path d="M18.4072 35.576H7.77282C7.00407 35.576 6.32785 35.2842 5.74417 34.7005C5.16049 34.1168 4.86865 33.4264 4.86865 32.6292V7.98645C4.86865 7.18923 5.1249 6.49878 5.6374 5.9151C6.1499 5.33142 6.60546 5.03958 7.00407 5.03958H15.3322C15.56 4.04305 16.0867 3.22447 16.9124 2.58385C17.7381 1.94322 18.6777 1.62291 19.7312 1.62291C20.7846 1.62291 21.7171 1.94322 22.5285 2.58385C23.34 3.22447 23.8739 4.04305 24.1301 5.03958H32.4582C33.2555 5.03958 33.9388 5.33142 34.5082 5.9151C35.0777 6.49878 35.3624 7.18923 35.3624 7.98645V16.5281H32.4582V7.98645H27.9312V13.5385H12.2999V7.98645H7.77282V32.6292H18.4072V35.576ZM26.4791 34.3375L19.5176 27.4187L21.5676 25.3687L26.4791 30.2802L36.6009 20.1583L38.6509 22.2083L26.4791 34.3375ZM20.4999 7.68749C20.9839 7.68749 21.3897 7.52378 21.7171 7.19635C22.0445 6.86892 22.2082 6.46319 22.2082 5.97916C22.2082 5.49513 22.0445 5.0894 21.7171 4.76197C21.3897 4.43454 20.9839 4.27083 20.4999 4.27083C20.0159 4.27083 19.6101 4.43454 19.2827 4.76197C18.9553 5.0894 18.7916 5.49513 18.7916 5.97916C18.7916 6.46319 18.9553 6.86892 19.2827 7.19635C19.6101 7.52378 20.0159 7.68749 20.4999 7.68749Z" fill="#00E0FF"/>
</svg>

<svg width="41" height="41" fill="none" xmlns="http://www.w3.org/2000/svg"><path d="M18.407 35.576H7.773c-.769 0-1.445-.292-2.029-.876-.584-.583-.875-1.274-.875-2.07V7.985c0-.797.256-1.487.768-2.07.513-.585.968-.876 1.367-.876h8.328c.228-.997.755-1.816 1.58-2.456a4.476 4.476 0 0 1 2.82-.961c1.053 0 1.985.32 2.797.96A4.468 4.468 0 0 1 24.13 5.04h8.328c.797 0 1.48.291 2.05.875.57.584.854 1.274.854 2.071v8.542h-2.904V7.986h-4.527v5.553H12.3V7.986H7.773V32.63h10.634v2.947Zm8.072-1.239-6.961-6.918 2.05-2.05 4.911 4.911 10.122-10.122 2.05 2.05-12.172 12.13ZM20.5 7.688c.485 0 .89-.163 1.218-.49.328-.328.491-.734.491-1.218s-.163-.89-.49-1.217a1.653 1.653 0 0 0-1.218-.491c-.484 0-.89.164-1.217.491a1.653 1.653 0 0 0-.491 1.217c0 .484.163.89.49 1.217.328.328.734.491 1.218.491Z" fill="#00E0FF"/></svg>
